packages/elements/bolt-icon/src/svgs/meteor.svg

<svg enable-background="new 0 0 32 32" viewBox="0 0 32 32" xmlns="http://www.w3.org/2000/svg"><g fill="#151619"><path d="m29.5 18.2-6.9-8.5-.6-.7c-.3-.5-1-.5-1.5-.2-.2.2-.4.4-.4.7s.1.6.3.8l2.3 2.8c1.8 2.1 3.5 4.3 5.3 6.4 1.4 1.6 1.9 3.8 1.3 5.8-1 3.4-4.5 5.3-7.8 4.4-1.3-.4-2.4-1.1-3.2-2.2l-14.6-17.5-1.4-1.7c-.2-.2-.4-.4-.7-.4s-.5.1-.7.3c-.3.2-.4.5-.4.9 0 .2.1.5.3.7l3.9 4.8c4 4.8 7.9 9.6 11.9 14.4 1.6 2 4 3.1 6.6 3.1 1.2 0 2.3-.2 3.3-.7 2.8-1.2 4.8-3.9 5-6.9.2-2.4-.5-4.6-2-6.3z"/><path d="m17.9 23.4c0 2.8 2.3 5.1 5.1 5.2 2.8 0 5.1-2.3 5.2-5.1 0-2.8-2.3-5.1-5.1-5.2-1.4 0-2.7.5-3.7 1.5-.9.9-1.5 2.2-1.5 3.6zm1.8-.1c0-.9.4-1.7 1-2.4.6-.6 1.4-.9 2.3-.9 1.8 0 3.3 1.5 3.3 3.3v.1c0 1.8-1.5 3.3-3.3 3.3s-3.3-1.5-3.3-3.4z"/><path d="m.9 4.7 12.5 15.2c.1.2.3.3.5.4s.3.1.5.1.3 0 .5-.1c.4-.2.6-.6.5-1v-.1l-.1-.2c-.1-.1-.1-.2-.2-.4-4.1-5-8.3-10-12.4-15.1h-.2c-.1-.2-.2-.3-.3-.5-.3-.2-.6-.3-.9-.3s-.5.2-.7.4c-.2.3-.2.7-.2 1 .2.3.3.5.5.6z"/><path d="m9.4 1.9 10.7 13c.2.3.6.5 1 .6.2 0 .4-.1.6-.2.2-.2.3-.4.4-.6 0-.4-.1-.8-.4-1l-6.3-7.7-4.5-5.4c-.1-.1-.2-.3-.4-.4l-.1-.1-.1-.1h-.2c-.4 0-.8.2-1 .5s-.2.7 0 1c.1.2.2.3.3.4z"/><path d="m7.8 8.2 4.2 5 2.6 3.1c.1.1.2.2.3.2l.1.1c.2.1.3.2.5.2s.4 0 .5-.1c.2-.1.4-.4.4-.7s-.1-.7-.3-.9c-2-2.5-4-4.9-6.1-7.4l-.7-.9c-.1-.1-.2-.2-.3-.3-.4-.3-1-.3-1.4 0-.3.4-.4 1-.1 1.4z"/></g></svg>

<?xml version="1.0" encoding="utf-8"?>
<!-- Generator: Adobe Illustrator 25.2.0, SVG Export Plug-In . SVG Version: 6.00 Build 0)  -->
<svg version="1.1" id="Layer_1" xmlns="http://www.w3.org/2000/svg" xmlns:xlink="http://www.w3.org/1999/xlink" x="0px" y="0px"
	 viewBox="0 0 32 32" style="enable-background:new 0 0 32 32;" xml:space="preserve">
<style type="text/css">
	.st0{fill:#151619;}
</style>
<g>
	<path class="st0" d="M29.5,18.2l-6.9-8.5L22,9c-0.3-0.5-1-0.5-1.5-0.2c0,0,0,0,0,0c-0.2,0.2-0.4,0.4-0.4,0.7c0,0.3,0.1,0.6,0.3,0.8
		l2.3,2.8c1.8,2.1,3.5,4.3,5.3,6.4c1.4,1.6,1.9,3.8,1.3,5.8c-1,3.4-4.5,5.3-7.8,4.4c-1.3-0.4-2.4-1.1-3.2-2.2L3.7,10L2.3,8.3
		C2.1,8.1,1.9,7.9,1.6,7.9C1.3,7.9,1.1,8,0.9,8.2C0.6,8.4,0.5,8.7,0.5,9.1c0,0.2,0.1,0.5,0.3,0.7l3.9,4.8c4,4.8,7.9,9.6,11.9,14.4
		c1.6,2,4,3.1,6.6,3.1c1.2,0,2.3-0.2,3.3-0.7c2.8-1.2,4.8-3.9,5-6.9C31.7,22.1,31,19.9,29.5,18.2z"/>
	<path class="st0" d="M17.9,23.4c0,2.8,2.3,5.1,5.1,5.2c2.8,0,5.1-2.3,5.2-5.1c0-2.8-2.3-5.1-5.1-5.2c-1.4,0-2.7,0.5-3.7,1.5
		C18.5,20.7,17.9,22,17.9,23.4z M19.7,23.3c0-0.9,0.4-1.7,1-2.4c0.6-0.6,1.4-0.9,2.3-0.9c1.8,0,3.3,1.5,3.3,3.3c0,0,0,0,0,0.1
		c0,1.8-1.5,3.3-3.3,3.3C21.2,26.7,19.7,25.2,19.7,23.3L19.7,23.3z"/>
	<path class="st0" d="M0.9,4.7l12.5,15.2c0.1,0.2,0.3,0.3,0.5,0.4c0.2,0.1,0.3,0.1,0.5,0.1c0.2,0,0.3,0,0.5-0.1
		c0.4-0.2,0.6-0.6,0.5-1v-0.1l-0.1-0.2c-0.1-0.1-0.1-0.2-0.2-0.4c-4.1-5-8.3-10-12.4-15.1L2.5,3.5C2.4,3.3,2.3,3.2,2.2,3
		C1.9,2.8,1.6,2.7,1.3,2.7c-0.3,0-0.5,0.2-0.7,0.4c-0.2,0.3-0.2,0.7-0.2,1C0.6,4.4,0.7,4.6,0.9,4.7z"/>
	<path class="st0" d="M9.4,1.9L9.4,1.9l10.7,13c0.2,0.3,0.6,0.5,1,0.6c0.2,0,0.4-0.1,0.6-0.2c0.2-0.2,0.3-0.4,0.4-0.6
		c0-0.4-0.1-0.8-0.4-1L15.4,6l-4.5-5.4c-0.1-0.1-0.2-0.3-0.4-0.4l-0.1-0.1L10.3,0h-0.2c-0.4,0-0.8,0.2-1,0.5c-0.2,0.3-0.2,0.7,0,1
		C9.2,1.7,9.3,1.8,9.4,1.9z"/>
	<path class="st0" d="M7.8,8.2l4.2,5l2.6,3.1c0.1,0.1,0.2,0.2,0.3,0.2l0.1,0.1c0.2,0.1,0.3,0.2,0.5,0.2c0.2,0,0.4,0,0.5-0.1
		c0.2-0.1,0.4-0.4,0.4-0.7c0-0.3-0.1-0.7-0.3-0.9c-2-2.5-4-4.9-6.1-7.4L9.3,6.8C9.2,6.7,9.1,6.6,9,6.5c-0.4-0.3-1-0.3-1.4,0
		C7.3,6.9,7.2,7.5,7.5,7.9c0,0,0,0,0,0L7.8,8.2z"/>
</g>
</svg>
